frontend/public/svg/interface/puzzle-2.svg

<svg width="149" height="160" viewBox="0 0 149 160" fill="none" xmlns="http://www.w3.org/2000/svg">
<g clip-path="url(#clip0)">
<path d="M97.6466 131.953C97.3474 133.909 97.1507 135.451 96.8709 136.977C95.8674 142.449 93.352 147.274 90.2038 151.751C87.5962 155.458 83.7645 157.512 79.4251 158.511C68.8333 160.949 59.4286 158.257 51.0581 151.579C48.6072 149.61 46.802 146.95 45.8756 143.942C44.4651 139.496 43.1259 135.008 43.1174 130.264C43.1174 129.84 43.0252 129.415 42.9311 128.604C41.2433 128.604 39.6109 128.586 37.9803 128.607C30.5231 128.7 23.0998 128.402 15.801 126.69C14.1762 126.34 12.5725 125.899 10.9976 125.367C5.11525 123.254 1.43537 119.217 1.26075 112.807C1.08614 106.476 1.28932 100.13 1.49054 93.7961C1.62816 89.4611 2.07463 85.1372 2.33428 80.8061C3.08012 68.3658 3.76232 55.9225 4.56659 43.4867C4.77511 41.2737 5.1583 39.0805 5.71238 36.928C6.62829 32.8955 9.10527 30.1234 13.1 29.1348C16.6296 28.1852 20.2407 27.5704 23.8853 27.2987C29.6462 26.9924 35.4338 27.2031 41.2104 27.1953C42.0854 27.1953 42.963 27.1953 44.1314 27.1953C44.9324 21.1758 46.6059 15.5927 50.8505 11.1445C53.852 7.99853 56.9003 4.90074 60.9385 3.07961C64.6005 1.43683 68.5659 0.584611 72.5781 0.578651C80.108 0.531822 87.184 2.09547 92.8399 7.52699C98.3204 12.7907 100.967 19.5713 102.525 26.93C103.817 26.93 104.909 26.941 106 26.93C114.102 26.8337 122.206 26.5604 130.305 26.6762C140.815 26.8271 144.507 32.7399 145.027 41.1679C145.252 44.8102 145.157 48.474 145.216 52.1273C145.227 52.457 145.261 52.7855 145.317 53.1107C145.853 56.6671 145.548 57.088 141.941 57.4035C139.281 57.6534 136.706 58.4794 134.396 59.8242C128.187 63.3364 125.347 69.1378 123.843 75.7096C123.377 78.0926 123.261 80.5304 123.499 82.9466C123.732 86.2195 125.832 88.3678 128.594 89.906C131.52 91.5417 134.841 92.3294 138.189 92.1824C139.633 92.1297 141.078 91.9567 142.516 92.012C143.619 92.0309 144.713 92.2286 145.754 92.5974C148.032 93.4748 148.935 95.5333 147.813 97.6978C147.171 99.0982 146.881 100.634 146.968 102.171C146.862 108.065 146.668 113.957 146.435 119.847C146.339 121.067 146.126 122.275 145.8 123.453C144.929 127.118 142.659 129.637 139.074 130.612C136.413 131.379 133.668 131.813 130.901 131.903C121.015 132.052 111.125 131.96 101.236 131.959L97.6466 131.953ZM134.599 51.9277C134.599 48.2802 134.604 44.9527 134.593 41.6253C134.593 40.9586 134.549 40.29 134.485 39.6259C134.197 36.6197 133.788 36.0968 130.693 35.5934C127.85 35.129 124.984 34.725 122.113 34.5285C114.136 33.9121 106.122 33.9289 98.1471 34.5788C95.8102 34.7895 95.2449 34.4141 94.5542 32.083C93.9563 30.0668 93.5883 27.9856 93.0995 25.9329C91.9661 21.1804 89.9318 16.9209 86.1409 13.7053C80.5137 8.92933 73.9218 9.03203 67.2034 10.1969C65.6698 10.4544 64.2059 11.0264 62.9033 11.8769C57.6331 15.4541 53.3391 19.8379 51.9532 26.3953C51.678 27.6961 51.2964 28.98 50.9634 30.2717C50.4123 32.4102 49.2174 33.7715 46.874 34.0109C41.472 34.5611 36.0776 35.1816 30.682 35.795C27.1612 36.1937 23.586 36.3543 20.1385 37.101C13.7986 38.4746 14.5561 38.5254 13.8752 43.9654C12.8509 52.1234 12.2984 60.3472 11.7428 68.5557C11.1802 76.8809 10.753 85.2133 10.4613 93.5528C10.2536 99.3317 10.2503 105.124 10.3529 110.906C10.4275 115.119 11.3144 116.048 15.4571 117.019C17.2797 117.509 19.1412 117.837 21.0206 118.002C27.3347 118.347 33.6579 118.532 39.9752 118.796C41.6381 118.801 43.2987 118.915 44.9466 119.138C48.7186 119.803 49.9312 121.459 49.9786 125.311C49.9796 129.991 50.7972 134.634 52.3941 139.031C53.2678 141.367 54.4414 143.512 56.4648 145.014C62.6243 149.578 69.3825 151.739 77.0986 150.083C78.5734 149.813 79.9697 149.217 81.1855 148.337C82.4013 147.458 83.4055 146.318 84.1254 145.001C86.4901 140.885 87.5008 136.426 88.4927 131.821C90.1551 124.098 91.9545 122.28 99.1591 122.014C100.047 121.981 100.935 121.91 101.82 121.912C110.924 121.931 120.026 121.972 129.13 121.981C131.207 121.981 133.33 122.312 135.659 121.331C136.216 114.789 136.777 108.188 137.352 101.425C136.758 101.345 136.224 101.269 135.689 101.201C131.374 100.72 127.217 99.2991 123.507 97.0383C117.275 93.1424 114.156 87.331 114.823 80.159C116.012 67.3824 121.354 57.1432 134.129 52.2379C134.298 52.1545 134.456 52.0504 134.599 51.9277Z" fill="black"/>
</g>
<defs>
<clipPath id="clip0">
<rect width="148" height="160" fill="white" transform="translate(0.777344)"/>
</clipPath>
</defs>
</svg>

<svg xmlns="http://www.w3.org/2000/svg" width="149" height="160" fill="none" viewBox="0 0 149 160"><g clip-path="url(#a)"><path fill="#000" d="M97.647 131.953c-.3 1.956-.496 3.498-.776 5.024-1.004 5.472-3.519 10.297-6.667 14.774-2.608 3.707-6.44 5.761-10.779 6.76-10.592 2.438-19.996-.254-28.367-6.932a15.74 15.74 0 0 1-5.182-7.637c-1.41-4.446-2.75-8.934-2.759-13.678 0-.424-.092-.849-.186-1.66-1.688 0-3.32-.018-4.95.003-7.458.093-14.881-.205-22.18-1.917a44 44 0 0 1-4.803-1.323c-5.883-2.113-9.563-6.15-9.737-12.56-.175-6.331.028-12.677.23-19.01.137-4.336.584-8.66.843-12.99.746-12.441 1.428-24.885 2.233-37.32a42 42 0 0 1 1.145-6.559c.916-4.032 3.393-6.805 7.388-7.793a58 58 0 0 1 10.785-1.836c5.761-.307 11.549-.096 17.325-.104h2.921c.801-6.02 2.475-11.602 6.72-16.05 3-3.146 6.049-6.245 10.087-8.065A28.5 28.5 0 0 1 72.578.579c7.53-.047 14.606 1.516 20.262 6.948 5.48 5.264 8.127 12.044 9.685 19.403 1.292 0 2.384.011 3.475 0 8.102-.096 16.206-.37 24.305-.254 10.51.151 14.202 6.064 14.722 14.492.225 3.642.13 7.306.189 10.96q.017.494.101.983c.536 3.556.231 3.977-3.376 4.293a18.4 18.4 0 0 0-7.545 2.42c-6.209 3.512-9.049 9.314-10.553 15.886a25 25 0 0 0-.344 7.237c.233 3.272 2.333 5.42 5.095 6.959a18.04 18.04 0 0 0 9.595 2.276c1.444-.052 2.889-.225 4.327-.17 1.103.019 2.197.217 3.238.585 2.278.878 3.181 2.936 2.059 5.1a9.45 9.45 0 0 0-.845 4.474c-.106 5.894-.3 11.786-.533 17.676a19 19 0 0 1-.635 3.606c-.871 3.665-3.141 6.184-6.726 7.159a33.4 33.4 0 0 1-8.173 1.291c-9.886.149-19.776.057-29.665.056zm36.952-80.025c0-3.648.005-6.975-.006-10.303 0-.666-.044-1.335-.108-2-.288-3.005-.697-3.528-3.792-4.032-2.843-.464-5.709-.868-8.58-1.065a151.4 151.4 0 0 0-23.966.05c-2.337.211-2.902-.164-3.593-2.495-.598-2.016-.966-4.097-1.454-6.15-1.134-4.753-3.168-9.012-6.96-12.228-5.626-4.776-12.218-4.673-18.937-3.508-1.533.257-2.997.83-4.3 1.68-5.27 3.577-9.564 7.96-10.95 14.518-.275 1.301-.657 2.585-.99 3.877-.55 2.138-1.746 3.5-4.089 3.739-5.402.55-10.796 1.17-16.192 1.784-3.52.399-7.096.56-10.543 1.306-6.34 1.374-5.583 1.424-6.264 6.864-1.024 8.158-1.577 16.382-2.132 24.59a770 770 0 0 0-1.282 24.998c-.207 5.779-.21 11.571-.108 17.353.075 4.213.961 5.142 5.104 6.113a32.3 32.3 0 0 0 5.564.983c6.314.345 12.637.53 18.954.794a38 38 0 0 1 4.972.342c3.772.665 4.984 2.321 5.032 6.173 0 4.68.818 9.323 2.415 13.72.874 2.336 2.047 4.481 4.07 5.983 6.16 4.564 12.918 6.725 20.635 5.069a10.09 10.09 0 0 0 7.027-5.082c2.364-4.116 3.375-8.575 4.367-13.18 1.662-7.723 3.462-9.541 10.666-9.807.888-.033 1.776-.104 2.661-.102 9.104.019 18.206.06 27.31.069 2.077 0 4.2.331 6.529-.65l1.693-19.906c-.594-.08-1.128-.156-1.663-.224a29.7 29.7 0 0 1-12.182-4.163c-6.232-3.896-9.351-9.707-8.684-16.879 1.189-12.777 6.531-23.016 19.306-27.921q.254-.127.47-.31"/></g><defs><clipPath id="a"><path fill="#fff" d="M.777 0h148v160h-148z"/></clipPath></defs></svg>
